svg/calendar_end_outline.svg

<svg xmlns="http://www.w3.org/2000/svg" viewBox="0 0 24 24"><path d="M5 9h14v3h2V5c0-1.1-.9-2-2-2h-1V1h-2v2H8V1H6v2H5c-1.1 0-2 .9-2 2v14c0 1.1.9 2 2 2h4v-2H5zm14-4v2H5V5zm-3 12h-5v2h5v3l4-4-4-4zm4-3v8h2v-8z"/></svg>

<svg xmlns="http://www.w3.org/2000/svg" id="mdi-calendar-end-outline" viewBox="0 0 24 24"><path d="M5 9H19V12H21V5C21 3.9 20.1 3 19 3H18V1H16V3H8V1H6V3H5C3.9 3 3 3.9 3 5V19C3 20.1 3.9 21 5 21H9V19H5V9M19 5V7H5V5H19M16 17H11V19H16V22L20 18L16 14V17M20 14V22H22V14H20Z" /></svg>
